X: 40547
T: Tommy Peoples'
R: reel
M: 4/4
K: Gmajor
g2dg egde|g2bg age2|g2dg egdB|cBAc BGGf|
g2dg egde|g2bg agef|gfga gedB|cBAc BGGF|

